X:262
T: Sijige
N: C1759
O: China,Shandong Licheng
S: III, 330]
R: Xiaodiao, Dieduanqiao diao]
M: 2/4
L: 1/16
K: F
G2GAG2E2 | F8 |
c4dfdc | B3dc2A2 | G2GAG2E2 | F8 |
G2G2G2A2 | c2dcB2A2 | c2G2AcAG | F8 |
G3AcdcA | G2cAGAGF | DCD4F2 | G3AF2FD | C4DCDF | c8

@@@ Tune index: 6817
